X:1
T:Title
%%score { ( 1 3 ) | ( 2 4 5 ) }
L:1/8
Q:1/4=132
M:4/4
K:D
V:1 treble nm="Grand Piano"
V:3 treble 
V:2 bass 
V:4 bass 
V:5 bass 
V:1
 D4 F2 A2 | [DFd]6 [DAc]2 | B2 G2 d2 B2 | [GB]4 [FA]4 | F4 E2 F2 | [FA]2 G2 F2 E2 | z2 A,2 E3 F | %7
w: Thoro~Harris * *|||||||
 [A,CE]8 | D4 F2 A2 | d2- [Gd-]2 d2 c2 | [Be]2 [DBd]2 [Ac]2 .[B,GB]2 | [DFA]4 [A,DF]4 | %12
w: |||||
 [DFA]4 [DGB]2 [EGA]2 | [DFd]2 [=CD]2 [B,DE]2 [B,DG]2 | [DF]4 [CE]4 | [F,D]8 | %16
w: ||||
 [CE]4[K:treble] [DF]2 [EG]2 | F8 | ^G4 G2 FE | [Cc]2 [EA]2 E2 C2 | [G,CE]4 [F,DF]2 [CG]2 | %21
w: |||||
 [DF]4 [DA]4 | ^G2 d2 B2 G2 | A8[K:bass] | D4 F2 A2 | d6 z2 | [Be]2 [DBd]2 [Ac]2 .[B,GB]2 | %27
w: ||||||
 [DFA]4 F4 | A4 B2 c2 | d2 A2 B2 [Ge]2 | z4 c4 | [Fd]8 |] %32
w: |||||
V:2
 D,4 F,2 A,2 | D,6 F,2 | [G,DG]2 [G,B,]2 [G,B,G]2 [G,DG]2 | [D,D]4 [D,D]4 | %4
 [D,A,D]4 [D,G,D]2 [D,A,D]2 | [^D,=C]2 [E,B,E]2 [F,A,D]2 [G,B,]2 | F,2 z2 [E,^G,D]4 | %7
 z2 G,2 F,2 E,2 | D,4 F,2 A,2 | A,2- [E,A,]2 [F,D]4 | [G,D]2 G,2 z A, z C | D,4 D,4 | D,4 D,2 C,2 | %13
 B,,2 F,2 G,2 E,2 | A,6 z2 | D,8 | [A,,A,]4 [A,,A,]2 [A,,A,]2 | A,4 z4 | %18
 [E,B,D]4 [E,B,D]2 [E,^G,D]2 | [A,,A,]2 [C,A,]2 [E,A,C]2 A,2 | A,,4 A,,2 [A,,E,]2 | %21
 [D,F,]4 [B,,F,]4 | D2 z2 [^G,E]2 z2 | [A,C]8 | D,4 F,2 A,2 | A,6 z2 | [G,D]2 G,2 z A, z C | %27
 D,4 [D,A,D]4 | [F,=CD]4[K:treble] [G,B,D]2 [A,EG]2 | [B,DF]2[K:bass] [F,=CD]2 [G,B,D]2 [E,B,]2 | %30
 [A,F]4 [A,,A,]4 | [D,A,]8 |] %32
V:3
 x8 | x8 | x8 | x8 | x8 | x8 | D4 z4 | x8 | x8 | F2 z2 A4 | x8 | x8 | x8 | x8 | x8 | x8 | %16
 x4[K:treble] x4 | z4 F,4 | x8 | x8 | x8 | x8 | x8 | z2[K:bass] G,2 F,2 E,2 | x8 | %25
 F2 G2 A2 [DAc]2 | x8 | x8 | x8 | x8 | d4 E2 G2 | x8 |] %32
V:4
 x8 | x8 | x8 | x8 | x8 | x8 | [B,,B,]4 z4 | A,,8 | x8 | D,2 z2 z4 | z4 G,2 G,2 | x8 | x8 | x8 | %14
 z4 z2 G,2 | x8 | x8 | [D,D]8 | x8 | x8 | x8 | x8 | E,2- [E,F,F]2 E,2- [E,B,D]2 | x8 | x8 | %25
 D,2 E,2 F,2 F,2 | z4 G,2 G,2 | x8 | x4[K:treble] x4 | x2[K:bass] x6 | x8 | x8 |] %32
V:5
 x8 | x8 | x8 | x8 | x8 | x8 | x8 | x8 | x8 | x8 | x8 | x8 | x8 | x8 | z4 A,,4 | x8 | x8 | x8 | %18
 x8 | x8 | x8 | x8 | x8 | x8 | x8 | x8 | x8 | x8 | x4[K:treble] x4 | x2[K:bass] x6 | x8 | x8 |] %32

